icons/themes/default/collapse.svg

<svg viewBox="0 0 16 16" fill="none" xmlns="http://www.w3.org/2000/svg">
<path d="M9.37879 6.62121H8.87879V7.12121H9.37879V6.62121ZM6.62121 9.37879H7.12121V8.87879H6.62121V9.37879ZM14.2626 2.44446C14.4579 2.2492 14.4579 1.93262 14.2626 1.73736C14.0674 1.54209 13.7508 1.54209 13.5555 1.73736L14.2626 2.44446ZM1.73736 13.5555C1.54209 13.7508 1.54209 14.0674 1.73736 14.2626C1.93262 14.4579 2.2492 14.4579 2.44446 14.2626L1.73736 13.5555ZM9.37879 1.5H8.87879V6.62121H9.37879H9.87879V1.5H9.37879ZM9.37879 6.62121V7.12121H14.5V6.62121V6.12121H9.37879V6.62121ZM6.62121 9.37879V8.87879H1.5V9.37879V9.87879H6.62121V9.37879ZM6.62121 9.37879H6.12121V14.5H6.62121H7.12121V9.37879H6.62121ZM13.9091 2.09091L13.5555 1.73736L9.2222 6.07069L9.57576 6.42424L9.92931 6.7778L14.2626 2.44446L13.9091 2.09091ZM6.42424 9.57576L6.07069 9.2222L1.73736 13.5555L2.09091 13.9091L2.44446 14.2626L6.7778 9.92931L6.42424 9.57576Z" fill="currentColor"/>
</svg>

<svg xmlns="http://www.w3.org/2000/svg" fill="none" viewBox="0 0 16 16">
  <path fill="currentColor" d="M9.379 6.621h-.5v.5h.5v-.5ZM6.62 9.38h.5v-.5h-.5v.5Zm7.642-6.935a.5.5 0 1 0-.707-.707l.707.707ZM1.737 13.555a.5.5 0 1 0 .707.708l-.707-.707ZM9.38 1.5h-.5v5.121h1V1.5h-.5Zm0 5.121v.5H14.5v-1H9.379v.5ZM6.62 9.38v-.5H1.5v1h5.121v-.5Zm0 0h-.5V14.5h1V9.379h-.5ZM13.91 2.09l-.354-.354-4.333 4.334.354.353.353.354 4.334-4.334-.354-.353ZM6.424 9.576l-.353-.354-4.334 4.334.354.353.353.354 4.334-4.334-.354-.353Z"/>
</svg>
